X:20
T:Planxty Irwin
Z: id:dc-ocarolan-13
M:3/4
L:1/8
K:G Major
d2|g4 f2|e2 f2 g2|d4 c2|B2 A2 G2|c4 A2|B2 c2 d2|F4 G2|A4 d2|!
g4 f2|e2 f2 g2|d4 c2|B2 A2 G2|c4 A2|B2 c2 d2|G4 F2|G4:|!
d2|g4 g2|g2 f2 g2|a4 a2|a2 f2 d2|b4 b2|a4 g2|f4 e2|d2 e2 f2|!
g4 f2|e2 f2 g2|d4 c2|B2 A2 G2|c4 A2|B2 c2 d2|G4 F2|G4:|!

